icons/magic-wand-fill.svg

<svg xmlns="http://www.w3.org/2000/svg" width="450" height="450" viewBox="0 0 450 450">
  <path d="M442.68018,442.67993a25.01152,25.01152,0,0,1-35.36036,0l-166.27-166.28-20.0996,64.66016a24.99334,24.99334,0,0,1-44.28028,7.01L121.25977,269.73l-95.94,1.23A25,25,0,0,1,4.96,231.01L62.3501,154.10986,31.54,63.24A24.98858,24.98858,0,0,1,63.24023,31.54L154.10986,62.3501,231.00977,4.96A25.00027,25.00027,0,0,1,270.96,25.32007L269.73,121.26l78.33984,55.3999a25.00234,25.00234,0,0,1-7.00976,44.29l-64.6499,20.1001,166.27,166.27A25.01152,25.01152,0,0,1,442.68018,442.67993Z" style="fill: #000026"/>
</svg>

<svg id="Layer_1" data-name="Layer 1" xmlns="http://www.w3.org/2000/svg" viewBox="0 0 450 450"><path d="M442.68,442.68a25,25,0,0,1-35.36,0L241.05,276.4,221,341.06a25,25,0,0,1-20,17.27,25,25,0,0,1-24.32-10.26l-55.41-78.34L25.32,271A25,25,0,0,1,5,231l57.39-76.9L31.54,63.24a25,25,0,0,1,31.7-31.7l90.87,30.81L231,5A25,25,0,0,1,271,25.32l-1.23,95.94,78.34,55.4a25,25,0,0,1-7,44.29l-64.65,20.1L442.68,407.32A25,25,0,0,1,442.68,442.68Z"/></svg>
